package/converter/svg/light/disc-drive.svg

<svg xmlns="http://www.w3.org/2000/svg" viewBox="0 0 512 512"><!-- Font Awesome Pro 6.0.0-alpha2 by @fontawesome - https://fontawesome.com License - https://fontawesome.com/license (Commercial License) --><path d="M256 224C238.375 224 224 238.375 224 256S238.375 288 256 288C273.625 288 288 273.625 288 256S273.625 224 256 224ZM496 448H480V96C480 60.654 451.346 32 416 32H96C60.654 32 32 60.654 32 96V448H16C7.2 448 0 455.2 0 464V464C0 472.8 7.2 480 16 480H496C504.8 480 512 472.8 512 464V464C512 455.2 504.8 448 496 448ZM448 448H64V96C64 78.375 78.375 64 96 64H416C433.625 64 448 78.375 448 96V448ZM256 96C167.625 96 96 167.625 96 256S167.625 416 256 416S416 344.375 416 256S344.375 96 256 96ZM256 384C185.25 384 128 326.75 128 256S185.25 128 256 128S384 185.25 384 256C383.875 326.625 326.625 383.875 256 384Z"/></svg>

<svg xmlns="http://www.w3.org/2000/svg" viewBox="0 0 512 512"><!--! Font Awesome Pro 6.6.0 by @fontawesome - https://fontawesome.com License - https://fontawesome.com/license (Commercial License) Copyright 2024 Fonticons, Inc. --><path d="M96 64l320 0c17.7 0 32 14.3 32 32l0 352L64 448 64 96c0-17.7 14.3-32 32-32zM480 448l0-352c0-35.3-28.7-64-64-64L96 32C60.7 32 32 60.7 32 96l0 352-16 0c-8.8 0-16 7.2-16 16s7.2 16 16 16l32 0 416 0 32 0c8.8 0 16-7.2 16-16s-7.2-16-16-16l-16 0zM256 384a128 128 0 1 1 0-256 128 128 0 1 1 0 256zM96 256a160 160 0 1 0 320 0A160 160 0 1 0 96 256zm160 32a32 32 0 1 0 0-64 32 32 0 1 0 0 64z"/></svg>
